;FLAVOR:Marlin
;TIME:14397
;Filament used: 9.63148m
;Layer height: 0.2
;MINX:86.061
;MINY:86.061
;MINZ:0.2
;MAXX:148.939
;MAXY:148.939
;MAXZ:33
;Generated with Cura_SteamEngine 5.2.2
M140 S50
M105
M190 S50
M104 S200
M105
M109 S200
M82 ;absolute extrusion mode
; Ender 3 Custom Start G-code
G92 E0 ; Reset Extruder
G28 ; Home all axes
G1 Z2.0 F3000 ; Move Z Axis up little to prevent scratching of Heat Bed
G1 X0.1 Y20 Z0.3 F5000.0 ; Move to start position
G1 X0.1 Y200.0 Z0.3 F1500.0 E15 ; Draw the first line
G1 X0.4 Y200.0 Z0.3 F5000.0 ; Move to side a little
G1 X0.4 Y20 Z0.3 F1500.0 E30 ; Draw the second line
G92 E0 ; Reset Extruder
G1 Z2.0 F3000 ; Move Z Axis up little to prevent scratching of Heat Bed
G1 X5 Y20 Z0.3 F5000.0 ; Move over to prevent blob squish
G92 E0
G92 E0
G1 F2700 E-5
;LAYER_COUNT:165
;LAYER:0
M107
G0 F6000 X88.484 Y98.599 Z0.2
;TYPE:SKIRT
G1 F2700 E0
G1 F1200 X89.083 Y98.084 E0.02627
G1 X89.731 Y97.633 E0.05253
G1 X90.422 Y97.249 E0.07883
G1 X91.147 Y96.937 E0.10508
G1 X91.9 Y96.7 E0.13133
G1 X92.674 Y96.541 E0.15761
G1 X93.459 Y96.46 E0.18386
G1 X93.861 Y96.45 E0.19724
G1 X96.454 Y96.45 E0.28348
G1 X96.45 Y93.861 E0.36959
G1 X96.49 Y93.072 E0.39587
G1 X96.609 Y92.292 E0.42211
G1 X96.807 Y91.527 E0.44839
G1 X97.081 Y90.787 E0.47464
G1 X97.429 Y90.078 E0.50091
G1 X97.847 Y89.407 E0.5272
G1 X98.33 Y88.783 E0.55345
G1 X98.873 Y88.21 E0.5797
G1 X99.472 Y87.695 E0.60598
G1 X100.12 Y87.244 E0.63223
G1 X100.811 Y86.86 E0.65853
G1 X101.536 Y86.548 E0.68478
G1 X102.289 Y86.311 E0.71104
G1 X103.063 Y86.152 E0.73732
G1 X103.848 Y86.071 E0.76356
G1 X104.25 Y86.061 E0.77694
G1 X112.7 Y86.061 E1.05799
G1 X113.489 Y86.101 E1.08426
G1 X114.269 Y86.22 E1.11051
G1 X115.034 Y86.418 E1.13679
G1 X115.774 Y86.692 E1.16303
G1 X116.483 Y87.04 E1.1893
G1 X117.154 Y87.458 E1.2156
G1 X117.493 Y87.72 E1.22985
G1 X118.17 Y87.244 E1.25737
G1 X118.861 Y86.86 E1.28367
G1 X119.586 Y86.548 E1.30992
G1 X120.339 Y86.311 E1.33617
G1 X121.113 Y86.152 E1.36245
G1 X121.898 Y86.071 E1.3887
G1 X122.3 Y86.061 E1.40208
G1 X130.75 Y86.061 E1.68313
G1 X131.539 Y86.101 E1.7094
G1 X132.319 Y86.22 E1.73564
G1 X133.084 Y86.418 E1.76193
G1 X133.824 Y86.692 E1.78817
G1 X134.533 Y87.04 E1.81444
G1 X135.204 Y87.458 E1.84073
G1 X135.828 Y87.941 E1.86698
G1 X136.401 Y88.484 E1.89324
G1 X136.916 Y89.083 E1.91951
G1 X137.367 Y89.731 E1.94577
G1 X137.751 Y90.422 E1.97206
G1 X138.063 Y91.147 E1.99831
G1 X138.3 Y91.9 E2.02457
G1 X138.459 Y92.674 E2.05085
G1 X138.54 Y93.459 E2.0771
G1 X138.55 Y93.861 E2.09047
G1 X138.55 Y96.454 E2.17672
G1 X141.139 Y96.45 E2.26283
G1 X141.928 Y96.49 E2.2891
G1 X142.708 Y96.609 E2.31535
G1 X143.473 Y96.807 E2.34163
G1 X144.213 Y97.081 E2.36787
G1 X144.922 Y97.429 E2.39414
G1 X145.593 Y97.847 E2.42044
G1 X146.217 Y98.33 E2.44668
G1 X146.79 Y98.873 E2.47294
G1 X147.305 Y99.472 E2.49921
G1 X147.756 Y100.12 E2.52547
G1 X148.14 Y100.811 E2.55176
G1 X148.452 Y101.536 E2.57802
G1 X148.689 Y102.289 E2.60427
G1 X148.848 Y103.063 E2.63055
G1 X148.929 Y103.848 E2.6568
G1 X148.939 Y104.25 E2.67018
G1 X148.939 Y112.7 E2.95122
G1 X148.899 Y113.489 E2.9775
G1 X148.78 Y114.269 E3.00374
G1 X148.582 Y115.034 E3.03003
G1 X148.308 Y115.774 E3.05627
G1 X147.96 Y116.483 E3.08254
G1 X147.542 Y117.154 E3.10883
G1 X147.28 Y117.493 E3.12308
G1 X147.756 Y118.17 E3.15061
G1 X148.14 Y118.861 E3.1769
G1 X148.452 Y119.586 E3.20315
G1 X148.689 Y120.339 E3.22941
G1 X148.848 Y121.113 E3.25569
G1 X148.929 Y121.898 E3.28194
G1 X148.939 Y122.3 E3.29531
G1 X148.939 Y130.75 E3.57636
G1 X148.899 Y131.539 E3.60264
G1 X148.78 Y132.319 E3.62888
G1 X148.582 Y133.084 E3.65516
G1 X148.308 Y133.824 E3.68141
G1 X147.96 Y134.533 E3.70768
G1 X147.542 Y135.204 E3.73397
G1 X147.059 Y135.828 E3.76022
G1 X146.516 Y136.401 E3.78647
G1 X145.917 Y136.916 E3.81275
G1 X145.269 Y137.367 E3.83901
G1 X144.578 Y137.751 E3.8653
G1 X143.853 Y138.063 E3.89155
G1 X143.1 Y138.3 E3.91781
G1 X142.326 Y138.459 E3.94409
G1 X141.541 Y138.54 E3.97033
G1 X141.139 Y138.55 E3.98371
G1 X138.546 Y138.55 E4.06995
G1 X138.55 Y141.139 E4.15606
G1 X138.51 Y141.928 E4.18234
G1 X138.391 Y142.708 E4.20858
G1 X138.193 Y143.473 E4.23487
G1 X137.919 Y144.213 E4.26111
G1 X137.571 Y144.922 E4.28738
G1 X137.153 Y145.593 E4.31367
G1 X136.67 Y146.217 E4.33992
G1 X136.127 Y146.79 E4.36617
G1 X135.528 Y147.305 E4.39245
G1 X134.88 Y147.756 E4.41871
G1 X134.189 Y148.14 E4.445
G1 X133.464 Y148.452 E4.47125
G1 X132.711 Y148.689 E4.49751
G1 X131.937 Y148.848 E4.52379
G1 X131.152 Y148.929 E4.55004
G1 X130.75 Y148.939 E4.56341
G1 X122.3 Y148.939 E4.84446
G1 X121.511 Y148.899 E4.87074
G1 X120.731 Y148.78 E4.89698
G1 X119.966 Y148.582 E4.92326
G1 X119.226 Y148.308 E4.94951
G1 X118.517 Y147.96 E4.97578
G1 X117.846 Y147.542 E5.00207
G1 X117.507 Y147.28 E5.01632
G1 X116.83 Y147.756 E5.04385
G1 X116.139 Y148.14 E5.07014
G1 X115.414 Y148.452 E5.09639
G1 X114.661 Y148.689 E5.12265
G1 X113.887 Y148.848 E5.14893
G1 X113.102 Y148.929 E5.17517
G1 X112.7 Y148.939 E5.18855
G1 X104.25 Y148.939 E5.4696
G1 X103.461 Y148.899 E5.49587
G1 X102.681 Y148.78 E5.52212
G1 X101.916 Y148.582 E5.5484
G1 X101.176 Y148.308 E5.57464
G1 X100.467 Y147.96 E5.60091
G1 X99.796 Y147.542 E5.62721
G1 X99.172 Y147.059 E5.65345
G1 X98.599 Y146.516 E5.67971
G1 X98.084 Y145.917 E5.70598
G1 X97.633 Y145.269 E5.73224
G1 X97.249 Y144.578 E5.75853
G1 X96.937 Y143.853 E5.78479
G1 X96.7 Y143.1 E5.81104
G1 X96.541 Y142.326 E5.83732
G1 X96.46 Y141.541 E5.86357
G1 X96.45 Y141.139 E5.87695
G1 X96.45 Y138.546 E5.96319
G1 X93.861 Y138.55 E6.0493
G1 X93.072 Y138.51 E6.07558
G1 X92.292 Y138.391 E6.10182
G1 X91.527 Y138.193 E6.1281
G1 X90.787 Y137.919 E6.15435
G1 X90.078 Y137.571 E6.18062
G1 X89.407 Y137.153 E6.20691
G1 X88.783 Y136.67 E6.23315
G1 X88.21 Y136.127 E6.25941
G1 X87.695 Y135.528 E6.28568
G1 X87.244 Y134.88 E6.31194
G1 X86.86 Y134.189 E6.33824
G1 X86.548 Y133.464 E6.36449
G1 X86.311 Y132.711 E6.39074
G1 X86.152 Y131.937 E6.41703
G1 X86.071 Y131.152 E6.44327
G1 X86.061 Y130.75 E6.45665
G1 X86.061 Y122.3 E6.7377
G1 X86.101 Y121.511 E6.76397
G1 X86.22 Y120.731 E6.79022
G1 X86.418 Y119.966 E6.8165
G1 X86.692 Y119.226 E6.84274
G1 X87.04 Y118.517 E6.86901
G1 X87.458 Y117.846 E6.89531
G1 X87.72 Y117.507 E6.90956
G1 X87.244 Y116.83 E6.93708
G1 X86.86 Y116.139 E6.96337
G1 X86.548 Y115.414 E6.98963
G1 X86.311 Y114.661 E7.01588
G1 X86.152 Y113.887 E7.04216
G1 X86.071 Y113.102 E7.06841
G1 X86.061 Y112.7 E7.08179
G1 X86.061 Y104.25 E7.36283
G1 X86.101 Y103.461 E7.38911
G1 X86.22 Y102.681 E7.41535
G1 X86.418 Y101.916 E7.44164
G1 X86.692 Y101.176 E7.46788
G1 X87.04 Y100.467 E7.49415
G1 X87.458 Y99.796 E7.52044
G1 X87.941 Y99.172 E7.54669
G1 X88.484 Y98.599 E7.57294
G0 F6000 X88.877 Y98.78
G1 F1200 X89.472 Y98.292 E7.59854
G1 X90.114 Y97.869 E7.62411
G1 X90.797 Y97.514 E7.64971
G1 X91.512 Y97.233 E7.67526
G1 X92.254 Y97.027 E7.70088
G1 X93.012 Y96.899 E7.72644
G1 X93.861 Y96.85 E7.75473
G1 X96.303 Y96.85 E7.83595
G1 X96.884 Y96.88 E7.8553
G1 X96.85 Y96.303 E7.87453
G1 X96.85 Y93.861 E7.95575
G1 X96.89 Y93.093 E7.98132
G1 X97.009 Y92.333 E8.00691
G1 X97.207 Y91.59 E8.03249
G1 X97.481 Y90.871 E8.05808
G1 X97.828 Y90.185 E8.08365
G1 X98.244 Y89.538 E8.10923
G1 X98.725 Y88.938 E8.13481
G1 X99.266 Y88.391 E8.1604
G1 X99.861 Y87.903 E8.18599
G1 X100.503 Y87.48 E8.21156
G1 X101.186 Y87.125 E8.23716
G1 X101.901 Y86.844 E8.26271
G1 X102.643 Y86.638 E8.28833
G1 X103.401 Y86.51 E8.3139
G1 X104.25 Y86.461 E8.34218
G1 X112.7 Y86.461 E8.62323
G1 X113.468 Y86.501 E8.64881
G1 X114.228 Y86.62 E8.67439
G1 X114.971 Y86.818 E8.69997
G1 X115.69 Y87.092 E8.72556
G1 X116.376 Y87.439 E8.75113
G1 X117.023 Y87.855 E8.77671
G1 X117.502 Y88.239 E8.79713
G1 X117.911 Y87.903 E8.81474
G1 X118.553 Y87.48 E8.84031
G1 X119.236 Y87.125 E8.86591
G1 X119.951 Y86.844 E8.89146
G1 X120.693 Y86.638 E8.91707
G1 X121.451 Y86.51 E8.94264
G1 X122.3 Y86.461 E8.97093
G1 X130.75 Y86.461 E9.25197
G1 X131.518 Y86.501 E9.27755
G1 X132.278 Y86.62 E9.30314
G1 X133.021 Y86.818 E9.32871
G1 X133.74 Y87.092 E9.3543
G1 X134.426 Y87.439 E9.37987
G1 X135.073 Y87.855 E9.40546
G1 X135.673 Y88.336 E9.43103
G1 X136.22 Y88.877 E9.45662
G1 X136.708 Y89.472 E9.48222
G1 X137.131 Y90.114 E9.50779
G1 X137.486 Y90.797 E9.53339
G1 X137.767 Y91.512 E9.55894
G1 X137.973 Y92.254 E9.58456
G1 X138.101 Y93.012 E9.61012
G1 X138.15 Y93.861 E9.63841
G1 X138.15 Y96.303 E9.71963
G1 X138.12 Y96.884 E9.73898
G1 X138.697 Y96.85 E9.7582
G1 X141.139 Y96.85 E9.83942
G1 X141.907 Y96.89 E9.865
G1 X142.667 Y97.009 E9.89059
G1 X143.41 Y97.207 E9.91616
G1 X144.129 Y97.481 E9.94176
G1 X144.815 Y97.828 E9.96732
G1 X145.462 Y98.244 E9.99291
G1 X146.062 Y98.725 E10.01849
G1 X146.609 Y99.266 E10.04407
G1 X147.097 Y99.861 E10.06967
G1 X147.52 Y100.503 E10.09524
G1 X147.875 Y101.186 E10.12084
G1 X148.156 Y101.901 E10.14639
G1 X148.362 Y102.643 E10.17201
G1 X148.49 Y103.401 E10.19757
G1 X148.539 Y104.25 E10.22586
G1 X148.539 Y112.7 E10.50691
G1 X148.499 Y113.468 E10.53249
G1 X148.38 Y114.228 E10.55807
G1 X148.182 Y114.971 E10.58365
G1 X147.908 Y115.69 E10.60924
G1 X147.561 Y116.376 E10.63481
G1 X147.145 Y117.023 E10.66039
G1 X146.761 Y117.502 E10.68081
G1 X147.097 Y117.911 E10.69841
G1 X147.52 Y118.553 E10.72399
G1 X147.875 Y119.236 E10.74959
G1 X148.156 Y119.951 E10.77514
G1 X148.362 Y120.693 E10.80075
G1 X148.49 Y121.451 E10.82632
G1 X148.539 Y122.3 E10.8546
G1 X148.539 Y130.75 E11.13565
G1 X148.499 Y131.518 E11.16123
G1 X148.38 Y132.278 E11.18682
G1 X148.182 Y133.021 E11.21239
G1 X147.908 Y133.74 E11.23798
G1 X147.561 Y134.426 E11.26355
G1 X147.145 Y135.073 E11.28914
G1 X146.664 Y135.673 E11.31471
G1 X146.123 Y136.22 E11.3403
G1 X145.528 Y136.708 E11.3659
G1 X144.886 Y137.131 E11.39147
G1 X144.203 Y137.486 E11.41707
G1 X143.488 Y137.767 E11.44262
G1 X142.746 Y137.973 E11.46823
G1 X141.988 Y138.101 E11.4938
G1 X141.139 Y138.15 E11.52209
G1 X138.697 Y138.15 E11.60331
G1 X138.116 Y138.12 E11.62266
G1 X138.15 Y138.697 E11.64188
G1 X138.15 Y141.139 E11.7231
G1 X138.11 Y141.907 E11.74868
G1 X137.991 Y142.667 E11.77427
G1 X137.793 Y143.41 E11.79984
G1 X137.519 Y144.129 E11.82543
G1 X137.172 Y144.815 E11.851
G1 X136.756 Y145.462 E11.87659
G1 X136.275 Y146.062 E11.90216
G1 X135.734 Y146.609 E11.92775
G1 X135.139 Y147.097 E11.95335
G1 X134.497 Y147.52 E11.97892
G1 X133.814 Y147.875 E12.00452
G1 X133.099 Y148.156 E12.03007
G1 X132.357 Y148.362 E12.05568
G1 X131.599 Y148.49 E12.08125
G1 X130.75 Y148.539 E12.10954
G1 X122.3 Y148.539 E12.39059
G1 X121.532 Y148.499 E12.41616
G1 X120.772 Y148.38 E12.44175
G1 X120.029 Y148.182 E12.46732
G1 X119.31 Y147.908 E12.49292
G1 X118.624 Y147.561 E12.51848
G1 X117.977 Y147.145 E12.54407
G1 X117.498 Y146.761 E12.56449
G1 X117.089 Y147.097 E12.58209
G1 X116.447 Y147.52 E12.60766
G1 X115.764 Y147.875 E12.63327
G1 X115.049 Y148.156 E12.65882
G1 X114.307 Y148.362 E12.68443
G1 X113.549 Y148.49 E12.71
G1 X112.7 Y148.539 E12.73828
G1 X104.25 Y148.539 E13.01933
G1 X103.482 Y148.499 E13.04491
G1 X102.722 Y148.38 E13.0705
G1 X101.979 Y148.182 E13.09607
G1 X101.26 Y147.908 E13.12166
G1 X100.574 Y147.561 E13.14723
G1 X99.927 Y147.145 E13.17281
G1 X99.327 Y146.664 E13.19839
G1 X98.78 Y146.123 E13.22398
G1 X98.292 Y145.528 E13.24957
G1 X97.869 Y144.886 E13.27515
G1 X97.514 Y144.203 E13.30075
G1 X97.233 Y143.488 E13.3263
G1 X97.027 Y142.746 E13.35191
G1 X96.899 Y141.988 E13.37748
G1 X96.85 Y141.139 E13.40576
G1 X96.85 Y138.697 E13.48699
G1 X96.88 Y138.116 E13.50634
G1 X96.303 Y138.15 E13.52556
G1 X93.861 Y138.15 E13.60678
G1 X93.093 Y138.11 E13.63236
G1 X92.333 Y137.991 E13.65795
G1 X91.59 Y137.793 E13.68352
G1 X90.871 Y137.519 E13.70911
G1 X90.185 Y137.172 E13.73468
G1 X89.538 Y136.756 E13.76027
G1 X88.938 Y136.275 E13.78584
G1 X88.391 Y135.734 E13.81143
G1 X87.903 Y135.139 E13.83703
G1 X87.48 Y134.497 E13.8626
G1 X87.125 Y133.814 E13.8882
G1 X86.844 Y133.099 E13.91375
G1 X86.638 Y132.357 E13.93936
G1 X86.51 Y131.599 E13.96493
G1 X86.461 Y130.75 E13.99322
G1 X86.461 Y122.3 E14.27426
G1 X86.501 Y121.532 E14.29984
G1 X86.62 Y120.772 E14.32543
G1 X86.818 Y120.029 E14.351
G1 X87.092 Y119.31 E14.37659
G1 X87.439 Y118.624 E14.40216
G1 X87.855 Y117.977 E14.42775
G1 X88.239 Y117.498 E14.44817
G1 X87.903 Y117.089 E14.46577
G1 X87.48 Y116.447 E14.49134
G1 X87.125 Y115.764 E14.51694
G1 X86.844 Y115.049 E14.5425
G1 X86.638 Y114.307 E14.56811
G1 X86.51 Y113.549 E14.59368
G1 X86.461 Y112.7 E14.62196
G1 X86.461 Y104.25 E14.90301
G1 X86.501 Y103.482 E14.92859
G1 X86.62 Y102.722 E14.95417
G1 X86.818 Y101.979 E14.97975
G1 X87.092 Y101.26 E15.00534
G1 X87.439 Y100.574 E15.03091
G1 X87.855 Y99.927 E15.05649
G1 X88.336 Y99.327 E15.08207
G1 X88.877 Y98.78 E15.10766
G0 F6000 X89.269 Y98.966
G1 F1200 X89.859 Y98.507 E15.13252
G1 X90.495 Y98.112 E15.15742
G1 X91.169 Y97.788 E15.1823
G1 X91.874 Y97.538 E15.20717
G1 X92.602 Y97.364 E15.23207
G1 X93.344 Y97.269 E15.25695
G1 X93.861 Y97.25 E15.27416
G1 X96.303 Y97.25 E15.35538
G1 X96.629 Y97.267 E15.36624
G1 X97.242 Y97.25 E15.38663
G1 X97.267 Y96.777 E15.40239
G1 X97.25 Y96.303 E15.41816
G1 X97.25 Y93.861 E15.49938
G1 X97.29 Y93.114 E15.52426
G1 X97.409 Y92.376 E15.54913
G1 X97.607 Y91.654 E15.57403
G1 X97.88 Y90.958 E15.59889
G1 X98.227 Y90.295 E15.62378
G1 X98.642 Y89.672 E15.64868
G1 X99.121 Y89.098 E15.67355
G1 X99.658 Y88.577 E15.69843
G1 X100.248 Y88.118 E15.72329
G1 X100.884 Y87.723 E15.74819
G1 X101.558 Y87.399 E15.77307
G1 X102.263 Y87.149 E15.79795
G1 X102.991 Y86.975 E15.82284
G1 X103.733 Y86.88 E15.84772
G1 X104.25 Y86.861 E15.86493
G1 X112.7 Y86.861 E16.14598
G1 X113.447 Y86.901 E16.17086
G1 X114.185 Y87.02 E16.19572
G1 X114.907 Y87.218 E16.22062
G1 X115.603 Y87.491 E16.24549
G1 X116.266 Y87.838 E16.27038
G1 X116.889 Y88.253 E16.29527
G1 X117.509 Y88.77 E16.32212
G1 X117.708 Y88.577 E16.33135
G1 X118.298 Y88.118 E16.35621
G1 X118.934 Y87.723 E16.38111
G1 X119.608 Y87.399 E16.40598
G1 X120.313 Y87.149 E16.43086
G1 X121.041 Y86.975 E16.45576
G1 X121.783 Y86.88 E16.48064
G1 X122.3 Y86.861 E16.49784
G1 X130.75 Y86.861 E16.77889
G1 X131.497 Y86.901 E16.80377
G1 X132.235 Y87.02 E16.82864
G1 X132.957 Y87.218 E16.85354
G1 X133.653 Y87.491 E16.8784
G1 X134.316 Y87.838 E16.90329
G1 X134.939 Y88.253 E16.92819
G1 X135.513 Y88.732 E16.95305
G1 X136.034 Y89.269 E16.97794
G1 X136.493 Y89.859 E17.0028
G1 X136.888 Y90.495 E17.0277
G1 X137.212 Y91.169 E17.05258
G1 X137.462 Y91.874 E17.07746
G1 X137.636 Y92.602 E17.10235
G1 X137.731 Y93.344 E17.12723
G1 X137.75 Y93.861 E17.14444
G1 X137.75 Y96.303 E17.22566
G1 X137.733 Y96.629 E17.23652
G1 X137.75 Y97.242 E17.25691
G1 X138.223 Y97.267 E17.27267
G1 X138.697 Y97.25 E17.28844
G1 X141.139 Y97.25 E17.36966
G1 X141.886 Y97.29 E17.39455
G1 X142.624 Y97.409 E17.41941
G1 X143.346 Y97.607 E17.44431
G1 X144.042 Y97.88 E17.46918
G1 X144.705 Y98.227 E17.49406
G1 X145.328 Y98.642 E17.51896
G1 X145.902 Y99.121 E17.54383
G1 X146.423 Y99.658 E17.56871
G1 X146.882 Y100.248 E17.59358
G1 X147.277 Y100.884 E17.61848
G1 X147.601 Y101.558 E17.64335
G1 X147.851 Y102.263 E17.66823
G1 X148.025 Y102.991 E17.69312
G1 X148.12 Y103.733 E17.718
G1 X148.139 Y104.25 E17.73521
G1 X148.139 Y112.7 E18.01626
G1 X148.099 Y113.447 E18.04114
G1 X147.98 Y114.185 E18.066
G1 X147.782 Y114.907 E18.0909
G1 X147.509 Y115.603 E18.11577
G1 X147.162 Y116.266 E18.14066
G1 X146.747 Y116.889 E18.16556
G1 X146.23 Y117.509 E18.19241
G1 X146.423 Y117.708 E18.20163
G1 X146.882 Y118.298 E18.22649
G1 X147.277 Y118.934 E18.25139
G1 X147.601 Y119.608 E18.27626
G1 X147.851 Y120.313 E18.30114
G1 X148.025 Y121.041 E18.32604
G1 X148.12 Y121.783 E18.35092
G1 X148.139 Y122.3 E18.36813
G1 X148.139 Y130.75 E18.64917
